icons/svg/shopping/cosmetics.svg

<?xml version="1.0" encoding="UTF-8" standalone="no"?>
<!-- Created with Inkscape (http://www.inkscape.org/) -->

<svg
   xmlns:dc="http://purl.org/dc/elements/1.1/"
   xmlns:cc="http://creativecommons.org/ns#"
   xmlns:rdf="http://www.w3.org/1999/02/22-rdf-syntax-ns#"
   xmlns:svg="http://www.w3.org/2000/svg"
   xmlns="http://www.w3.org/2000/svg"
   xmlns:sodipodi="http://sodipodi.sourceforge.net/DTD/sodipodi-0.dtd"
   xmlns:inkscape="http://www.inkscape.org/namespaces/inkscape"
   version="1.0"
   width="580"
   height="580"
   id="svg2"
   sodipodi:version="0.32"
   inkscape:version="0.48.4 r9939"
   sodipodi:docname="cosmetics.svg"
   inkscape:output_extension="org.inkscape.output.svg.inkscape">
  <metadata
     id="metadata10">
    <rdf:RDF>
      <cc:Work
         rdf:about="">
        <dc:format>image/svg+xml</dc:format>
        <dc:type
           rdf:resource="http://purl.org/dc/dcmitype/StillImage" />
        <cc:license
           rdf:resource="http://web.resource.org/cc/PublicDomain" />
        <dc:language>en</dc:language>
        <dc:title />
      </cc:Work>
    </rdf:RDF>
  </metadata>
  <sodipodi:namedview
     inkscape:window-height="1004"
     inkscape:window-width="1920"
     inkscape:pageshadow="2"
     inkscape:pageopacity="0.0"
     guidetolerance="10.0"
     gridtolerance="10.0"
     objecttolerance="10.0"
     borderopacity="1.0"
     bordercolor="#666666"
     pagecolor="#ffffff"
     id="base"
     showgrid="false"
     inkscape:zoom="0.25"
     inkscape:cx="459.66768"
     inkscape:cy="493.79794"
     inkscape:window-x="1680"
     inkscape:window-y="0"
     inkscape:current-layer="svg2"
     inkscape:window-maximized="1" />
  <defs
     id="defs4">
    <clipPath
       id="clipoutline2"
       clipPathUnits="userSpaceOnUse">
      <path
         d="M 55.8,12 L 56.56,12.16 C 65.4,9.22 85.24,20.8 80.82,31.12 C 79.7,32.74 79.89,35.62 81.24,37.43 L 56.43,62.25 C 55.04,60.86 51.95,60.89 50.53,62.25 L 9.5,101.63 C 5.76,105.22 8.7,108.27 10.28,109.88 L 17.64,117.24 C 19.25,118.84 23.5,121 26.52,117.8 L 65.24,76.99 C 66.59,75.57 66.6,72.52 65.24,71.12 C 65.24,71.12 65.25,71.1 65.24,71.1 L 90.15,46.2 C 92.78,48.57 95.263827,48.774854 97.62,48.13 C 102.17057,46.884568 104.70725,51.336643 107.43,54.59 L 106.2,55.8 C 104.38,57.64 104.55,60.74 106.59,62.78 C 108.63,64.82 111.74,64.99 113.56,63.17 L 121.7,55.04 C 123.52,53.2 123.35,50.1 121.3,48.07 C 119.46,46.22 116.79,45.98 114.93,47.3 C 109.35,41.04 112.28,40.1 104.92,31.95 L 91.13,17.86 C 81.2,8.12 68.3,8.13 55.8,12 z"
         id="outline2" />
    </clipPath>
    <clipPath
       id="clipoutline1"
       clipPathUnits="userSpaceOnUse">
      <path
         d="M 22.42,17.2 L 35.38,30.15 L 32.88,38.93 L 24.1,41.43 L 11.14,28.47 L 5.28,34.33 L 20.17,55.79 L 37.73,52.45 L 99.36,118.07 C 108.8,127.58 121.53,113.32 112.7,105.2 L 46.85,42.92 L 50.86,25.16 L 28.72,10.89 L 22.42,17.2 z M 103.48,109.17 C 105.16,107.49 107.88,107.49 109.56,109.17 C 111.24,110.85 111.24,113.57 109.56,115.25 C 107.88,116.92 105.16,116.92 103.48,115.25 C 101.8,113.57 101.8,110.85 103.48,109.17 z"
         id="outline1" />
    </clipPath>
    <inkscape:perspective
       sodipodi:type="inkscape:persp3d"
       inkscape:vp_x="0 : 290 : 1"
       inkscape:vp_y="0 : 1000 : 0"
       inkscape:vp_z="580 : 290 : 1"
       inkscape:persp3d-origin="290 : 193.33333 : 1"
       id="perspective12" />
    <style
       type="text/css"
       id="style6">
   
    .fil0 {fill:#EF7900}
   
  </style>
    <inkscape:perspective
       id="perspective6807"
       inkscape:persp3d-origin="29.116032 : 19.410688 : 1"
       inkscape:vp_z="58.232063 : 29.116032 : 1"
       inkscape:vp_y="0 : 1000 : 0"
       inkscape:vp_x="0 : 29.116032 : 1"
       sodipodi:type="inkscape:persp3d" />
    <inkscape:perspective
       id="perspective6954"
       inkscape:persp3d-origin="290 : 193.33333 : 1"
       inkscape:vp_z="580 : 290 : 1"
       inkscape:vp_y="0 : 1000 : 0"
       inkscape:vp_x="0 : 290 : 1"
       sodipodi:type="inkscape:persp3d" />
    <marker
       viewBox="0 0 10 10"
       refY="5"
       refX="10"
       orient="auto"
       markerWidth="4"
       markerUnits="strokeWidth"
       markerHeight="3"
       id="ArrowStart">
      <path
         id="path2295"
         d="M 10 0 L 0 5 L 10 10 z" />
    </marker>
    <marker
       viewBox="0 0 10 10"
       refY="5"
       refX="0"
       orient="auto"
       markerWidth="4"
       markerUnits="strokeWidth"
       markerHeight="3"
       id="ArrowEnd">
      <path
         id="path2292"
         d="M 0 0 L 10 5 L 0 10 z" />
    </marker>
    <inkscape:perspective
       id="perspective7597"
       inkscape:persp3d-origin="178.5405 : 158.483 : 1"
       inkscape:vp_z="357.08099 : 237.7245 : 1"
       inkscape:vp_y="0 : 1000 : 0"
       inkscape:vp_x="0 : 237.7245 : 1"
       sodipodi:type="inkscape:persp3d" />
  </defs>
  <g
     id="g1327"
     transform="translate(0.5,-0.5)">
    <path
       d="M 66.275,1.768 C 24.94,1.768 1.704,23.139 1.704,66.804 l 0,450.123 c 0,40.844 20.894,62.229 62.192,62.229 l 452.024,0 c 41.307,0 62.229,-20.316 62.229,-62.229 l 0,-450.123 c 0,-42.601 -20.922,-65.036 -63.522,-65.036 -0.003,0 -448.494,-0.143 -448.352,0 z"
       style="fill:#111111;stroke:#eeeeee;stroke-width:3.40799999"
       id="path1329"
       inkscape:connector-curvature="0" />
  </g>
  <g
     id="g2319"
     transform="translate(879.29125,36.805119)">
    <path
       id="path2323"
       style="fill:#ffffff;stroke:none"
       d="" />
  </g>
  <g
     id="g2325"
     transform="translate(879.29125,36.805119)">
    <path
       id="path2329"
       style="fill:#ffffff;stroke:none"
       d="" />
  </g>
  <path
     style="font-size:medium;font-style:normal;font-variant:normal;font-weight:normal;font-stretch:normal;text-indent:0;text-align:start;text-decoration:none;line-height:normal;letter-spacing:normal;word-spacing:normal;text-transform:none;direction:ltr;block-progression:tb;writing-mode:lr-tb;text-anchor:start;baseline-shift:baseline;color:#000000;fill:#ffffff;fill-opacity:1;stroke:none;stroke-width:31.40889931;marker:none;visibility:visible;display:inline;overflow:visible;enable-background:accumulate;font-family:Sans;-inkscape-font-specification:Sans"
     d="m 365.9375,214.90625 1.34375,16.21262 c 7.50252,94.87099 16.83407,189.21571 25.65625,284.21355 1.11046,11.67089 11.11404,21.19884 22.21875,21.19883 11.10474,2e-5 21.10829,-9.52793 22.21875,-21.19883 9.61357,-96.79756 19.88497,-188.78856 25.65625,-284.54198 L 464,214.90625 l -16.65625,0 -64.40625,0 z m 34.03125,30.00679 30.75,0 -4.5,75.0319 -19.9375,0 z"
     id="path3"
     inkscape:connector-curvature="0"
     sodipodi:nodetypes="cccsccccccccccc" />
  <path
     inkscape:connector-curvature="0"
     d="m 365.1803,180.08498 99.94251,-1e-5 46.04696,-78.84353 c 2.81965,-6.662845 2.81964,-13.325691 -2.81969,-17.767571 -5.63932,-4.44187 -14.09829,-11.104723 -23.96713,-16.657085 l -21.14746,74.401646 14.09832,-77.733068 c -15.50814,-7.773294 -36.65562,-13.325656 -60.62275,-12.215171 -14.0983,-1.5e-5 -25.37695,2.220937 -36.65561,4.441888 l -1e-5,35.535108 -14.09831,-31.093219 c -21.14746,5.552343 -35.24576,16.657075 -43.70477,23.319901 -5.63933,4.44189 -7.04915,12.215209 -4.2295,16.657091 z"
     id="path5"
     style="fill:#ffffff;fill-opacity:0.71428576"
     sodipodi:nodetypes="cccscccccccscc" />
  <path
     inkscape:connector-curvature="0"
     d="M 210.08275,526.00023 H 113.3505 c -9.9997,0 -18.1373,-4.12695 -18.1373,-9.19826 v -33.72694 c 0,-5.0713 8.1376,-9.19825 18.1373,-9.19825 h 96.73225 c 9.9997,0 18.1373,4.12695 18.1373,9.19825 v 33.72694 c 0,5.07131 -8.1376,9.19826 -18.1373,9.19826 z"
     id="path3-1"
     style="fill:#ffffff;fill-opacity:1" />
  <path
     inkscape:connector-curvature="0"
     d="m 209.56205,67.526279 c 0,-2.320492 -1.01272,-4.529354 -2.77504,-6.044461 -1.76229,-1.523084 -4.1147,-2.192911 -6.39533,-1.842054 -61.39367,9.250113 -84.57477,81.149986 -85.53168,82.888376 -0.65388,1.17221 -0.9888,2.49593 -0.9888,3.84359 l 0,68.6332 95.69085,0 z"
     id="path5-4"
     style="fill:#ffffff;fill-opacity:0.71428576"
     sodipodi:nodetypes="scccsccs" />
  <path
     inkscape:connector-curvature="0"
     d="m 225.51053,270.03149 c 0,-13.37375 -6.70633,-23.07809 -15.94848,-23.07809 H 113.8712 c -9.24215,0 -15.94848,9.70434 -15.94848,23.07809 V 454.65622 H 225.51053 V 270.03149 z"
     id="path7-7"
     style="fill:#ffffff;fill-opacity:1" />
</svg>

<svg width="580" height="580" viewBox="0 0 580 580" fill="none" xmlns="http://www.w3.org/2000/svg">
<g clip-path="url(#clip0)">
<path d="M66.7751 1.26766C25.4401 1.26766 2.2041 22.6387 2.2041 66.3037V516.427C2.2041 557.271 23.0981 578.656 64.3961 578.656H516.42C557.727 578.656 578.649 558.34 578.649 516.427V66.3037C578.649 23.7027 557.727 1.26766 515.127 1.26766C515.124 1.26766 66.6331 1.12466 66.7751 1.26766V1.26766Z" fill="#111111" stroke="#EEEEEE" stroke-width="3.408"/>
<path d="M365.938 214.906L367.281 231.119C374.784 325.99 384.115 420.335 392.938 515.332C394.048 527.003 404.052 536.531 415.156 536.531C426.261 536.531 436.265 527.003 437.375 515.332C446.989 418.535 457.26 326.544 463.031 230.79L464 214.906H447.344H382.938H365.938ZM399.969 244.913H430.719L426.219 319.945H406.281L399.969 244.913Z" fill="white"/>
<path d="M365.181 180.085H465.123L511.17 101.242C513.99 94.5788 513.99 87.916 508.35 83.4741C502.711 79.0322 494.252 72.3694 484.383 66.817L463.236 141.219L477.334 63.4856C461.826 55.7123 440.678 50.1599 416.711 51.2704C402.613 51.2704 391.334 53.4913 380.056 55.7123V91.2474L365.957 60.1542C344.81 65.7065 330.712 76.8113 322.253 83.4741C316.613 87.916 315.203 95.6893 318.023 100.131L365.181 180.085Z" fill="white" fill-opacity="0.714286"/>
<path d="M210.083 526H113.351C103.351 526 95.2134 521.873 95.2134 516.802V483.075C95.2134 478.004 103.351 473.877 113.351 473.877H210.083C220.083 473.877 228.22 478.004 228.22 483.075V516.802C228.22 521.873 220.083 526 210.083 526V526Z" fill="white"/>
<path d="M209.562 67.5267C209.562 65.2062 208.549 62.9973 206.787 61.4822C205.025 59.9591 202.672 59.2893 200.392 59.6402C138.998 68.8903 115.817 140.79 114.86 142.529C114.206 143.701 113.871 145.024 113.871 146.372V215.005H209.562V67.5267Z" fill="white" fill-opacity="0.714286"/>
<path d="M225.511 270.031C225.511 256.657 218.804 246.953 209.562 246.953H113.871C104.629 246.953 97.9229 256.657 97.9229 270.031V454.656H225.511V270.031Z" fill="white"/>
</g>
<defs>
<clipPath id="clip0">
<path d="M0 0H580V580H0V0Z" fill="white"/>
</clipPath>
</defs>
</svg>
